app/assets/images/my-wallets/conceptual_wallet.inline.svg

<?xml version="1.0" encoding="UTF-8"?>
<svg width="38px" height="38px" viewBox="0 0 38 38" version="1.1" xmlns="http://www.w3.org/2000/svg" xmlns:xlink="http://www.w3.org/1999/xlink">
    <!-- Generator: sketchtool 60 (101010) - https://sketch.com -->
    <title>77DEF445-D6DE-4B8F-9D84-E8F7EC02EB44</title>
    <desc>Created with sketchtool.</desc>
    <g id="Asset-Artboard-Page" stroke="none" stroke-width="1" fill="none" fill-rule="evenodd">
        <g id="icon/conceptual-wallet">
            <g id="icon/cicrle-bg" fill="#A7AFC0">
                <circle id="Oval-Copy" cx="19" cy="19" r="19"></circle>
            </g>
            <path d="M24.8300498,10.4037807 C25.1934459,10.6844683 25.4208314,11.0803096 25.4668751,11.5085478 L25.4755526,11.6704941 L25.475122,12.5402758 L26.6200688,12.5407569 C27.8238319,12.5407569 28.8236231,13.4190904 28.9790245,14.555748 L28.9949217,14.7122897 L29,14.8649906 L29,24.6757663 C29,25.907034 28.0147959,26.9162815 26.7761647,26.9950513 L26.6200688,27 L11.3799312,27 C10.1209003,27 9.08586413,26.040254 9.00507569,24.8284973 L9,24.6757663 L9,14.8649906 C9,13.6334617 9.98467491,12.6244545 11.2237718,12.5457043 L11.3799312,12.5407569 L12.2865288,12.5479415 L23.1550419,10.052707 C23.744014,9.91678263 24.3680132,10.047241 24.8300498,10.4037807 Z M26.6200688,13.859022 L11.3799312,13.859022 C10.8445748,13.859022 10.4045854,14.253158 10.3482995,14.7557389 L10.3422164,14.8649906 L10.3422164,24.6757663 C10.3422164,25.1923817 10.7465153,25.6209587 11.2667767,25.6758062 L11.3799312,25.6817348 L26.6200688,25.6817348 C27.1549259,25.6817348 27.595348,25.2873261 27.6516938,24.7849634 L27.6577836,24.6757663 L27.6577836,14.8649906 C27.6577836,14.3117871 27.1931299,13.859022 26.6200688,13.859022 Z M24.1728262,22 C24.4489685,22 24.6728262,22.2238576 24.6728262,22.5 C24.6728262,22.7454599 24.495951,22.9496084 24.2627018,22.9919443 L24.1728262,23 L14,23 C13.7238576,23 13.5,22.7761424 13.5,22.5 C13.5,22.2545401 13.6768752,22.0503916 13.9101244,22.0080557 L14,22 L24.1728262,22 Z M24.1728262,19 C24.4489685,19 24.6728262,19.2238576 24.6728262,19.5 C24.6728262,19.7454599 24.495951,19.9496084 24.2627018,19.9919443 L24.1728262,20 L14,20 C13.7238576,20 13.5,19.7761424 13.5,19.5 C13.5,19.2545401 13.6768752,19.0503916 13.9101244,19.0080557 L14,19 L24.1728262,19 Z M24.1728262,16 C24.4489685,16 24.6728262,16.2238576 24.6728262,16.5 C24.6728262,16.7454599 24.495951,16.9496084 24.2627018,16.9919443 L24.1728262,17 L14,17 C13.7238576,17 13.5,16.7761424 13.5,16.5 C13.5,16.2545401 13.6768752,16.0503916 13.9101244,16.0080557 L14,16 L24.1728262,16 Z M23.5594916,11.3215096 L23.4613835,11.3368551 L18.2136585,12.5402758 L24.1326829,12.5402758 L24.1333363,11.6704941 C24.1333363,11.6040974 24.1044021,11.5434168 24.0553206,11.4903115 L24.0012222,11.4408601 C23.8835496,11.3506986 23.7229622,11.3075084 23.5594916,11.3215096 Z" id="Combined-Shape" fill="#FFFFFF" fill-rule="nonzero"></path>
        </g>
    </g>
</svg>

<svg width="38" height="38" xmlns="http://www.w3.org/2000/svg"><g fill="none" fill-rule="evenodd"><circle cx="19" cy="19" r="19" fill="#A7AFC0"/><path d="M24.83 10.404c.363.28.59.676.637 1.105l.009.161v.87h1.144c1.204 0 2.204.88 2.359 2.016l.016.156.005.153v9.81c0 1.232-.985 2.241-2.224 2.32L26.62 27H11.38c-1.26 0-2.294-.96-2.375-2.172L9 24.676v-9.811c0-1.232.985-2.24 2.224-2.32l.156-.004.907.007 10.868-2.495a2.017 2.017 0 011.675.35zm1.79 3.455H11.38c-.535 0-.975.394-1.032.897l-.006.109v9.81c0 .517.405.946.925 1l.113.007h15.24c.535 0 .975-.395 1.032-.897l.006-.11v-9.81c0-.553-.465-1.006-1.038-1.006zM24.173 22a.5.5 0 01.09.992l-.09.008H14a.5.5 0 01-.09-.992L14 22h10.173zm0-3a.5.5 0 01.09.992l-.09.008H14a.5.5 0 01-.09-.992L14 19h10.173zm0-3a.5.5 0 01.09.992l-.09.008H14a.5.5 0 01-.09-.992L14 16h10.173zm-.614-4.678l-.098.015-5.247 1.203h5.919v-.87a.265.265 0 00-.078-.18l-.054-.05a.641.641 0 00-.442-.118z" fill="#FFF" fill-rule="nonzero"/></g></svg>
